img/tag.svg

<svg fill="none" height="800" viewBox="0 0 24 24" width="800" xmlns="http://www.w3.org/2000/svg">
    <path clip-rule="evenodd"
          d="m2.12264 12.816c.28754 1.0026 1.06031 1.7754 2.60584 3.3209l1.82964 1.8296c2.68899 2.689 4.03348 4.0335 5.70418 4.0335s3.0152-1.3445 5.7042-4.0335 4.0335-4.0335 4.0335-5.7042-1.3445-3.01519-4.0335-5.70418l-1.8296-1.82964c-1.5455-1.54553-2.3183-2.3183-3.3209-2.60584-1.0026-.28755-2.0675-.04181-4.19725.44967l-1.22818.28343c-1.79177.41348-2.68765.62023-3.30113 1.2337-.61347.61348-.82022 1.50937-1.2337 3.30113l-.28343 1.22818c-.49148 2.12975-.73722 3.19465-.44967 4.19725zm8.00076-5.54502c.7876.78758.7876 2.06451 0 2.85212-.78759.7876-2.06452.7876-2.85211 0-.78758-.78761-.78758-2.06454 0-2.85212.78759-.78759 2.06452-.78759 2.85211 0zm8.9277 4.78012-6.979 6.9792c-.2929.2929-.7678.2929-1.0607 0-.2929-.2928-.2929-.7677 0-1.0606l6.979-6.9793c.2929-.2929.7678-.2929 1.0607 0s.2929.7678 0 1.0607z"
          fill="#ffffff" fill-rule="evenodd"/>
</svg>

<?xml version="1.0" encoding="utf-8"?><!-- Uploaded to: SVG Repo, www.svgrepo.com, Generator: SVG Repo Mixer Tools -->
<svg width="800px" height="800px" viewBox="0 0 24 24" fill="none" xmlns="http://www.w3.org/2000/svg">
    <path fill-rule="evenodd" clip-rule="evenodd"
          d="M2.12264 12.816C2.41018 13.8186 3.18295 14.5914 4.72848 16.1369L6.55812 17.9665C9.24711 20.6555 10.5916 22 12.2623 22C13.933 22 15.2775 20.6555 17.9665 17.9665C20.6555 15.2775 22 13.933 22 12.2623C22 10.5916 20.6555 9.24711 17.9665 6.55812L16.1369 4.72848C14.5914 3.18295 13.8186 2.41018 12.816 2.12264C11.8134 1.83509 10.7485 2.08083 8.61875 2.57231L7.39057 2.85574C5.5988 3.26922 4.70292 3.47597 4.08944 4.08944C3.47597 4.70292 3.26922 5.59881 2.85574 7.39057L2.57231 8.61875C2.08083 10.7485 1.83509 11.8134 2.12264 12.816ZM10.1234 7.27098C10.911 8.05856 10.911 9.33549 10.1234 10.1231C9.33581 10.9107 8.05888 10.9107 7.27129 10.1231C6.48371 9.33549 6.48371 8.05856 7.27129 7.27098C8.05888 6.48339 9.33581 6.48339 10.1234 7.27098ZM19.0511 12.0511L12.0721 19.0303C11.7792 19.3232 11.3043 19.3232 11.0114 19.0303C10.7185 18.7375 10.7185 18.2626 11.0114 17.9697L17.9904 10.9904C18.2833 10.6975 18.7582 10.6975 19.0511 10.9904C19.344 11.2833 19.344 11.7582 19.0511 12.0511Z"
          fill="#FFFFFF"/>
</svg>
